X: 490
T: Polska # 490
T: efter Melker Andersson
Q: 110
M: 3/4
L: 1/16
K: D
AA | A2d2 D2E2 F2G2 | (AB)AG A2B2 c2A2 | A2d2 D2E2 F2G2 | (AB)AG A4 A,2 :|
|: d2 | d4 (eg)ec d2ef | g2g2 (fa)fd e2(fg)| a2(fa) g2(eg) f2(df) | e2c2 c2d2 d2 :|

